dist/svgs/linkedin.svg

<svg xmlns="http://www.w3.org/2000/svg" viewBox="0 0 512 512"><path d="M6 171h110v330H6V171zM62 12q29 0 45 16.5T123 69t-16.5 40.5T61 126q-28 0-44.5-16.5T0 69t17-40.5T62 12zm324 152q54 0 90 36t36 112v189H402V325q0-34-13-54.5T347 250q-23 0-37 13t-20 27q-2 5-2.5 12t-.5 15v184H177V171h110v47q-1 0-1 1h1v-1q5-8 13-17.5t19.5-17.5 28-13.5T386 164z"/></svg>

<?xml version="1.0" encoding="UTF-8" standalone="no"?><svg   xmlns:svg="http://www.w3.org/2000/svg"   xmlns="http://www.w3.org/2000/svg"   version="1.1"   width="512"   height="512"   viewBox="0 0 512 512">  <path     d="M6 171H116V501H6V171zM62 12Q91 12 107 28.5T123 69T106.5 109.5T61 126Q33 126 16.5 109.5T0 69T17 28.5T62 12zM386 164Q440 164 476 200T512 312V501H402V325Q402 291 389 270.5T347 250Q324 250 310 263T290 290Q288 295 287.5 302T287 317V501H177V348V171H287V218Q286 218 286 219H287V218Q292 210 300 200.5T319.5 183T347.5 169.5T386 164z"     id="linkedin" /></svg>
